flaticon/constructions/tools-3.svg

<svg xmlns="http://www.w3.org/2000/svg" width="32" height="32" viewBox="0 0 24 24">
    <path d="M 23.71875 21.625 C 23.71875 21.503906 23.640625 21.425781 23.5625 21.34375 L 21.804688 20.144531 L 14.816406 13.15625 L 15.375 12.597656 C 15.453125 12.519531 15.496094 12.4375 15.496094 12.320312 C 15.496094 12.199219 15.453125 12.121094 15.375 12.039062 L 14.414062 11.078125 L 15.480469 9.882812 C 15.777344 10.046875 16.09375 10.15625 16.414062 10.203125 C 16.652344 10.242188 16.8125 10.242188 16.972656 10.242188 C 17.292969 10.242188 17.371094 10.242188 17.691406 10.523438 C 17.53125 10.640625 17.449219 10.84375 17.449219 11.042969 C 17.449219 11.242188 17.53125 11.480469 17.691406 11.640625 L 19.089844 13.039062 C 19.289062 13.277344 19.605469 13.398438 19.925781 13.398438 C 20.246094 13.398438 20.566406 13.277344 20.765625 13 L 23.601562 10.164062 C 23.839844 9.964844 23.960938 9.644531 23.960938 9.324219 C 23.960938 9.003906 23.839844 8.726562 23.601562 8.484375 L 22.203125 7.089844 C 22.042969 6.929688 21.84375 6.847656 21.644531 6.847656 C 21.445312 6.847656 21.246094 6.96875 21.085938 7.089844 C 20.765625 6.808594 20.765625 6.730469 20.765625 6.410156 C 20.765625 6.25 20.765625 6.050781 20.6875 5.808594 C 20.605469 5.25 20.324219 4.691406 19.886719 4.253906 L 18.449219 2.816406 C 17.609375 1.976562 17.210938 1.578125 16.132812 1.097656 C 13.816406 0.0195312 11.460938 0.21875 8.027344 1.777344 C 7.828125 1.855469 7.746094 2.015625 7.785156 2.214844 C 7.828125 2.414062 7.988281 2.535156 8.1875 2.535156 L 8.707031 2.535156 C 10.460938 2.535156 11.382812 2.535156 12.976562 4.132812 C 13.679688 4.832031 13.699219 5.90625 13.070312 6.695312 C 12.988281 6.707031 12.921875 6.746094 12.859375 6.808594 L 11.59375 8.21875 L 3.875 0.5 C 3.234375 -0.140625 2.195312 -0.140625 1.558594 0.5 L 0.480469 1.578125 C 0.160156 1.898438 0 2.296875 0 2.734375 C 0 3.175781 0.160156 3.574219 0.480469 3.894531 L 8.386719 11.800781 L 0.480469 20.625 C 0.160156 20.945312 0 21.382812 0 21.824219 C 0 22.261719 0.160156 22.664062 0.480469 22.980469 L 1.039062 23.539062 C 1.359375 23.820312 1.71875 23.980469 2.15625 23.980469 C 2.59375 23.980469 2.996094 23.78125 3.316406 23.5 L 11.246094 14.621094 L 12.019531 15.394531 C 12.101562 15.472656 12.179688 15.515625 12.300781 15.515625 C 12.417969 15.515625 12.5 15.472656 12.539062 15.433594 L 13.136719 14.835938 L 20.125 21.824219 L 21.324219 23.582031 C 21.40625 23.660156 21.484375 23.742188 21.605469 23.742188 L 23.519531 23.980469 L 23.5625 23.980469 C 23.679688 23.980469 23.761719 23.941406 23.878906 23.898438 C 23.960938 23.820312 24 23.699219 24 23.582031 Z M 13.496094 3.496094 C 12.21875 2.257812 11.261719 1.855469 10.183594 1.738281 C 12.460938 1.019531 14.136719 1.058594 15.8125 1.816406 C 16.773438 2.214844 17.089844 2.535156 17.929688 3.375 L 19.367188 4.8125 C 19.6875 5.132812 19.886719 5.53125 19.925781 5.929688 C 19.964844 6.128906 19.964844 6.289062 19.964844 6.410156 C 19.964844 6.847656 20.007812 7.167969 20.484375 7.648438 C 20.644531 7.808594 20.886719 7.886719 21.085938 7.886719 C 21.324219 7.886719 21.523438 7.808594 21.644531 7.648438 L 23.042969 9.046875 C 23.121094 9.125 23.160156 9.203125 23.160156 9.324219 C 23.160156 9.445312 23.121094 9.523438 23.042969 9.605469 L 20.207031 12.4375 C 20.046875 12.597656 19.808594 12.597656 19.648438 12.4375 L 18.25 11.042969 C 18.410156 10.921875 18.488281 10.722656 18.449219 10.484375 C 18.449219 10.28125 18.371094 10.042969 18.210938 9.882812 C 17.730469 9.402344 17.410156 9.363281 16.972656 9.363281 C 16.851562 9.363281 16.691406 9.363281 16.492188 9.324219 C 16.054688 9.285156 15.695312 9.085938 15.375 8.765625 L 13.65625 7.046875 C 14.535156 5.96875 14.457031 4.453125 13.496094 3.496094 Z M 1.039062 3.335938 C 0.878906 3.175781 0.796875 2.976562 0.796875 2.734375 C 0.796875 2.496094 0.878906 2.296875 1.039062 2.136719 L 2.117188 1.058594 C 2.277344 0.898438 2.515625 0.820312 2.714844 0.820312 C 2.914062 0.820312 3.15625 0.898438 3.316406 1.058594 L 11.0625 8.804688 L 10.496094 9.445312 L 8.933594 11.191406 Z M 2.753906 22.941406 C 2.59375 23.101562 2.394531 23.179688 2.15625 23.179688 C 1.957031 23.179688 1.757812 23.101562 1.597656 22.941406 L 1.039062 22.421875 C 0.878906 22.261719 0.796875 22.0625 0.796875 21.863281 C 0.796875 21.625 0.878906 21.425781 1.078125 21.226562 L 13.160156 7.707031 L 14.855469 9.40625 L 13.671875 10.726562 C 13.640625 10.746094 13.609375 10.769531 13.578125 10.800781 L 10.941406 13.757812 C 10.90625 13.792969 10.878906 13.832031 10.859375 13.875 Z M 12.300781 14.554688 L 11.78125 14.035156 L 12.574219 13.136719 L 13.867188 11.691406 L 14.535156 12.320312 Z M 14.296875 13.71875 L 20.964844 20.464844 L 20.40625 21.023438 L 13.695312 14.277344 Z M 21.882812 22.980469 L 20.964844 21.625 L 21.644531 20.945312 L 22.960938 21.863281 L 23.121094 23.140625 Z M 21.882812 22.980469"/>
    <path d="M 9.464844 8.925781 L 2.675781 2.136719 C 2.515625 1.976562 2.277344 1.976562 2.117188 2.136719 C 1.957031 2.296875 1.957031 2.535156 2.117188 2.695312 L 8.90625 9.484375 C 8.984375 9.5625 9.066406 9.605469 9.183594 9.605469 C 9.304688 9.605469 9.382812 9.5625 9.464844 9.484375 C 9.625 9.324219 9.625 9.085938 9.464844 8.925781 Z M 9.464844 8.925781"/>
</svg>

<svg xmlns="http://www.w3.org/2000/svg" width="32" height="32" viewBox="0 0 24 24">
    <path d="M23.719 21.625c0-.121-.078-.2-.157-.281l-1.757-1.2-6.989-6.988.559-.558a.366.366 0 0 0 .121-.278c0-.12-.043-.199-.121-.28l-.96-.962 1.065-1.195c.297.164.614.273.934.32.238.04.398.04.559.04.32 0 .398 0 .718.28a.643.643 0 0 0-.242.52c0 .2.082.437.242.598l1.399 1.398c.2.238.515.36.836.36.32 0 .64-.122.84-.399l2.836-2.836c.238-.2.359-.52.359-.84 0-.32-.121-.597-.36-.84L22.204 7.09a.79.79 0 0 0-.558-.242c-.2 0-.399.12-.56.242-.32-.281-.32-.36-.32-.68 0-.16 0-.36-.078-.601a2.813 2.813 0 0 0-.8-1.555l-1.438-1.438c-.84-.84-1.238-1.238-2.316-1.718-2.317-1.078-4.672-.88-8.106.68-.199.077-.28.238-.242.437.043.2.203.32.402.32h.52c1.754 0 2.676 0 4.27 1.598.703.699.722 1.773.093 2.562a.364.364 0 0 0-.21.114l-1.266 1.41L3.875.5c-.64-.64-1.68-.64-2.316 0L.48 1.578c-.32.32-.48.719-.48 1.156 0 .442.16.84.48 1.16l7.907 7.907L.48 20.625c-.32.32-.48.758-.48 1.2 0 .437.16.84.48 1.155l.56.56c.32.28.679.44 1.116.44.438 0 .84-.199 1.16-.48l7.93-8.879.774.774c.082.078.16.12.28.12a.34.34 0 0 0 .24-.081l.597-.598 6.988 6.988 1.2 1.758c.081.078.16.16.28.16l1.915.238h.043c.117 0 .199-.039.316-.082a.44.44 0 0 0 .121-.316zM13.496 3.496c-1.277-1.238-2.234-1.64-3.312-1.758 2.277-.718 3.953-.68 5.629.078.96.399 1.277.72 2.117 1.559l1.437 1.438c.32.32.52.718.559 1.117.039.199.039.36.039.48 0 .438.043.758.52 1.238.16.16.402.239.6.239.24 0 .438-.078.56-.239l1.398 1.399a.357.357 0 0 1 .117.277c0 .121-.039.2-.117.281l-2.836 2.832a.385.385 0 0 1-.559 0l-1.398-1.394c.16-.121.238-.32.2-.559a.878.878 0 0 0-.24-.601c-.48-.48-.8-.52-1.237-.52-.121 0-.282 0-.48-.039-.438-.039-.798-.238-1.118-.558l-1.719-1.72c.88-1.077.801-2.593-.16-3.55zM1.04 3.336a.816.816 0 0 1-.242-.602c0-.238.082-.437.242-.597l1.078-1.078a.875.875 0 0 1 1.2 0l7.745 7.746-.566.64-1.562 1.746zM2.754 22.94a.81.81 0 0 1-.598.239.786.786 0 0 1-.558-.239l-.559-.52a.79.79 0 0 1-.242-.558c0-.238.082-.437.281-.636L13.16 7.707l1.695 1.7-1.183 1.32a.52.52 0 0 0-.094.074l-2.637 2.957a.398.398 0 0 0-.082.117zm9.547-8.386l-.52-.52.793-.898 1.293-1.446.668.63zm1.996-.836l6.668 6.746-.559.558-6.71-6.746zm7.586 9.261l-.918-1.355.68-.68 1.316.918.16 1.278zm0 0"/>
    <path d="M9.465 8.926l-6.79-6.79a.385.385 0 0 0-.558 0 .385.385 0 0 0 0 .56l6.79 6.788c.077.079.16.121.277.121.12 0 .199-.043.28-.12a.385.385 0 0 0 0-.56zm0 0"/>
</svg>
